X: 141
T: Ayrılık Çanları
C: Ömer Sami Güpgüp
O: Turkey
F: http://compmusic.upf.edu/node/140
N: hicaz--sarki--duyek--ayrilik_canlari--omer_sami_gupgup
N: makam= hicaz
N: form= sarki
N: usul= duyek = 8/4
M: 8/4
L: 1/16
K: C _7/8B ^f ^c 
Q: 1/4=180
%%MIDI tuningsystem comma53
z2 e4 d2 c4 e4  | c2 e6 (3e2d2c2 e4  | \
w:  Ay rı lık  çan  |  la rı  SAZ  | 
z2 B4 c2 d6 B2  | A8 ed cB A4  | 
w:  çal sa  an sı  |  zın   SAZ  | 
z2 e4 f2 g4 f4  | e2 g6 (3a2g2f2 g4  | \
w:  El ve da  sev  |  gi lim  SAZ  | 
z4 c2 d2 =f6 e2  | d8 =fe dc d4  | 
w:  di ye cek  mi  |  sin   SAZ  | 
z2 =b2 a2 g2 z2 a2 g2 f2  | z2 g2 =f2 e2 ed cB A4  | \
w:  SAZ  |  SAZ  | 
z2 e4 d2 c4 e4  | 
w:  Ay rı lık  çan  | 
c2 e6 (3e2d2c2 e4  | z2 B4 c2 d6 B2  | \
w:  la rı  SAZ  |  çal sa  an sı  | 
A8 ed cB A4  | z2 e4 f2 g4 f4  | 
w:  zın   SAZ  |  El ve da  sev  | 
e2 g6 (3a2g2f2 g4  | z4 c2 d2 =f6 e2  | \
w:  gi lim  SAZ  |  di ye cek  mi  | 
d8 =fe dc d4  | z2 =b2 a2 g2 z2 a2 g2 f2  | 
w:  sin   SAZ  |  SAZ  | 
z2 g2 =f2 e2 ed dc d4  | e2 e4 f2 g4 f2 e2  | \
w:  SAZ  |  Ö nün de  diz  çök  | 
g8 (3g2=f2e2 f4  | z2 e4 =f2 e2 d2 c2 d2  | 
w:  sem  SAZ  |  git me  kal  *  *  de  | 
c8 (3d2c2d2 c4  | z2 A4 B2 c4 B4  | A2 B6 (3c2B2A2 B4  | \
w:  sem   SAZ  |  Bak ma dan  ar  |  dı na  SAZ  | 
z4 A2 B2 c6 B2  | 
w:  gi de cek  mi  | 
A8 Bc Bc A4  | z2 =b2 a2 g2 z2 a2 g2 f2  | \
w:  sin   SAZ  |  SAZ  | 
z2 g2 =f2 e2 ed dc d4  | 
w:  SAZ  | 
e2 e4 f2 g4 f2 e2  | g8 (3g2=f2e2 f4  | \
w:  Ö nün de  diz  çök  |  sem  SAZ  | 
z2 e4 =f2 e2 d2 c2 d2  | c8 (3d2c2d2 c4  | 
w:  git me  kal  *  *  de  |  sem   SAZ  | 
z2 A4 B2 c4 B4  | A2 B6 (3c2B2A2 B4  | \
w:  Bak ma dan  ar  |  dı na  SAZ  | 
z4 A2 B2 c6 B2  | A8 Bc Bc A4  | 
w:  gi de cek  mi  |  sin   SAZ  | 
z2 =b2 a2 g2 z2 a2 g2 f2  | z2 c'2 b2 a2 ag fg a4  | \
w:  SAZ  |  SAZ  | 
z2 f4 g2 a6 b2  | 
w:  Ay rı  yön de   | 
g2 b6 ba ga b4  | a4 b4 c'6 b2  | a8 c'b ba a4  | \
w:  a kan  SAZ  |  ır mak lar  gi  |  bi   SAZ  | 
f2 g4 f2 gf ga b4  | 
w:  Da lın *  dan   | 
b2 a2 g=f ed cB Ac B4  | c4 d4 g6 =f2  | \
w:  u çu şan   |  yap rak lar  gi  | 
e8 de fg a4  | 
w:  bi   SAZ  | 
z2 =b2 a2 g2 z2 a2 g2 f2  | z2 g2 =f2 e2 ed dc d4  | \
w:  SAZ  |   | 
e2 e4 f2 g4 f4  | 
w:  Ü mit *  siz  ça  | 
e2 g6 (3g2=f2e2 f4  | e4 =f4 e2 d2 c2 d2  | \
w:  re siz  SAZ  |  â şık lar  *  *  gi  | 
c8 (3d2c2d2 c4  | A4 B4 c4 B4  | 
w:  bi   SAZ  |  Kal bin den  aş  | 
A2 B6 (3c2B2A2 B4  | z4 A2 B2 c6 B2  | \
w:  kı mı  SAZ  |  si le cek  mi  | 
A8 Bc Bc A4  | z2 =b2 a2 g2 z2 a2 g2 f2  | 
w:  sin   SAZ  |  SAZ  | 
z2 g2 =f2 e2 ed dc d4  | e2 e4 f2 g4 f4  | \
w:   |  Ü mit *  siz  ça  | 
e2 g6 (3g2=f2e2 f4  | e4 =f4 e2 d2 c2 d2  | 
w:  re siz  SAZ  |  â şık lar  *  *  gi  | 
c8 (3d2c2d2 c4  | A4 B4 c4 B4  | A2 B6 (3c2B2A2 B4  | \
w:  bi   SAZ  |  Kal bin den  aş  |  kı mı  SAZ  | 
z4 A2 B2 c6 B2  | A8 Bc Bc A4  | 
w:  si le cek  mi  |  sin   SAZ  | 
|


